2021/frontend/assets/img/bg-ROU.svg

<svg fill="none" height="1573" viewBox="0 0 1440 1573" width="1440" xmlns="http://www.w3.org/2000/svg" xmlns:xlink="http://www.w3.org/1999/xlink"><filter id="a" color-interpolation-filters="sRGB" filterUnits="userSpaceOnUse" height="1572.05" width="1518.34" x="-38.7715" y="0"><feFlood flood-opacity="0" result="BackgroundImageFix"/><feColorMatrix in="SourceAlpha" type="matrix" values="0 0 0 0 0 0 0 0 0 0 0 0 0 0 0 0 0 0 127 0"/><feOffset/><feGaussianBlur stdDeviation="15"/><feColorMatrix type="matrix" values="0 0 0 0 1 0 0 0 0 0.658824 0 0 0 0 0.658824 0 0 0 0.14 0"/><feBlend in2="BackgroundImageFix" mode="normal" result="effect1_dropShadow"/><feBlend in="SourceGraphic" in2="effect1_dropShadow" mode="normal" result="shape"/></filter><g filter="url(#a)" stroke="#ffa8a8" stroke-opacity=".19"><path d="m680.59 1029.44v-.5h-.5-490.704l-98.6152-109.048h589.3192.5v-.5-52.934l138.275-53.024v105.958.5h.5 520.795l108.21 109.048h-629.005-.5v.5 441.18l-138.275 70.61z"/><path d="m820.468 416.267h-.5v.5 365.623l-138.274 56.256v-421.879-.5h-.5-612.4743l-76.2634-74.463h1286.0337l71.49 74.463z"/><path d="m682.823 214.259.117.069h.136 32.349v108.687h-32.215l-131.018-75.589-.116-.066h-.134-32.348v-110.127h32.212z"/><path d="m652.794 431.099v104.075l-352.596 196.91-93.221-52.037z"/><path d="m652.794 1044.82v117.91l-352.57 200.84-93.336-64.8z"/><path d="m1296.53 1298.77-93.33 64.8-352.573-200.84v-117.91z"/><path d="m1187.81 430.748h162.05l-76.8 70.155h-162.18z"/><path d="m652.797 719.158v92.696l-133.203-74.462v-92.826z"/><path d="m784.345 323.015h-32.134v-104.724h32.24.13l.114-.063 32.869-18.293.257-.143v-.294-17.793h130.221v17.793 50.771z"/><path d="m956.988 118.237v35.784h-131.897v-17.774-.296l-.26-.143-33.289-18.275-.112-.061h-.129-498.388l-112.339-86.972h646.616z"/></g><path clip-rule="evenodd" d="m824.937 152.707v-17.275l-33.289-18.275-484.799.855-112.339-86.972-1.291-1h1.633 632.838l129.284 87.972v34.695 1h-1-130.037-1zm-517.747-35.696-111.046-85.971h631.238l128.592 87.501v34.166h-130.037v-17.275-.592l-.519-.285-33.289-18.275-.226-.124-.257.001zm375.097 98.712-.236-.141-130.898-77.809h-37.594v114.257h38.729.253l.223.12 130.052 70.405h31.595v-106.832h-31.849zm32.124-1h1v1 106.832 1h-1-31.849l-130.274-70.525h-38.729-1v-1-114.257-1h1 37.869l131.134 77.95zm105.543 200.229h-1v1 365.295l-132.974 55.823v-421.118-1.003l-1.003.003-601.9474 1.709-75.24146-73.466 1269.97186-1.706 70.53 73.463zm-133.974 423.203 133.974-56.243v-364.96-1h1 528.296 1.39l-.96-1-71.49-74.463-1271.42462 1.708-1.42944.002 1.02276.998 76.2648 74.465 601.3565-1.707 1-.003v1 420.538 1.085zm3.197 191.325v-1h-1.001l-484.462.85-97.709-108.043h582.172 1v-1-52.607l128.674-52.59v105.197 1h1 520.589l107.21 108.043-627.797-.85h-1.002v1 441.72l-128.674 64.99zm-584.521-108.193 98.615 109.043 483.906-.85h1v1 506.21 1.12l1-.5 129.674-65.49v-441.34-.98-.02h1l627.789.85h1.41l-.99-1-108.2-109.043h-520.009-1v-1-104.605-1.081l-1 .409-129.674 52.999v52.278 1h-1-582.077-1.348zm547.125-489.327v102.96l-352.135 196.653-109.19-51.544zm1 103.547-353.097 197.19-110.323-52.079-1.125-.531 1.096-.589 462.449-248.673 1-.538v1.136zm-1 626.973v-116.73l-429.968 254 78.826 63.24zm-351.237 201.72 352.237-201.14v-117.9-1.16l-1 .59-430.802 254.49-.92.54.834.67zm993.676-65.35-91.56 63.31-345.31-200.65-5.478-114.78zm-91.51 64.49-346.333-201.24-5.534-115.96-.056-1.18 1.029.59 443.314 252.67.96.55-.91.63zm145.35-932.198h-1.49-144.85l-76.93 70.155-1.1 1h1.49 144.98l76.8-70.155zm-2.58 1h-143.37l-75.84 69.155h143.5zm-692.698 378.586v1.163l-1-.595-128.042-76.137-4.244-89.375-.056-1.176 1.028.573 132.314 73.723zm-1-91.236v90.641l-127.068-75.558-4.19-88.218zm146.776-501.661h-50.662-1v1 102.869 1h1 36.901l163.23-72.067v-51.095-17.294-1h-1-114.599-1v1 17.294zm33.87-35.587v17.294.588l-.514.286-32.87 18.293-.226.126h-.26-50.662v102.869h36.69l162.441-71.718v-50.444-17.294z" fill="#ffa8a8" fill-opacity=".19" fill-rule="evenodd"/></svg>

<svg width="1440" height="1573" viewBox="0 0 1440 1573" fill="none" xmlns="http://www.w3.org/2000/svg">
<g filter="url(#filter0_d)">
<path d="M680.59 1029.44V1028.94H680.09H189.386L90.7708 919.892H680.09H680.59V919.392V866.458L818.865 813.434V919.392V919.892H819.365H1340.16L1448.37 1028.94H819.365H818.865V1029.44V1470.62L680.59 1541.23V1029.44Z" stroke="#FFA8A8" stroke-opacity="0.19"/>
<path d="M820.468 416.267H819.968V416.767V782.39L681.694 838.646V416.767V416.267H681.194H68.7197L-7.5437 341.804H1278.49L1349.98 416.267H820.468Z" stroke="#FFA8A8" stroke-opacity="0.19"/>
<path d="M682.823 214.259L682.94 214.328H683.076H715.425V323.015H683.21L552.192 247.426L552.076 247.36H551.942H519.594V137.233H551.806L682.823 214.259Z" stroke="#FFA8A8" stroke-opacity="0.19"/>
<path d="M652.794 431.099V535.174L300.198 732.084L206.977 680.047L652.794 431.099Z" stroke="#FFA8A8" stroke-opacity="0.19"/>
<path d="M652.794 1044.82V1162.73L300.224 1363.57L206.888 1298.77L652.794 1044.82Z" stroke="#FFA8A8" stroke-opacity="0.19"/>
<path d="M1296.53 1298.77L1203.2 1363.57L850.627 1162.73V1044.82L1296.53 1298.77Z" stroke="#FFA8A8" stroke-opacity="0.19"/>
<path d="M1187.81 430.748H1349.86L1273.06 500.903H1110.88L1187.81 430.748Z" stroke="#FFA8A8" stroke-opacity="0.19"/>
<path d="M652.797 719.158V811.854L519.594 737.392V644.566L652.797 719.158Z" stroke="#FFA8A8" stroke-opacity="0.19"/>
<path d="M784.345 323.015H752.211V218.291H784.451H784.581L784.695 218.228L817.564 199.935L817.821 199.792V199.498V181.705H948.042V199.498V250.269L784.345 323.015Z" stroke="#FFA8A8" stroke-opacity="0.19"/>
<path d="M956.988 118.237V154.021H825.091V136.247V135.951L824.831 135.808L791.542 117.533L791.43 117.472H791.301H292.913L180.574 30.5H827.19L956.988 118.237Z" stroke="#FFA8A8" stroke-opacity="0.19"/>
</g>
<path fill-rule="evenodd" clip-rule="evenodd" d="M824.937 152.707V135.432L791.648 117.157L306.849 118.012L194.51 31.04L193.219 30.04H194.852H827.69L956.974 118.012V152.707V153.707H955.974H825.937H824.937V152.707ZM307.19 117.011L196.144 31.04H827.382L955.974 118.541V152.707H825.937V135.432V134.84L825.418 134.555L792.129 116.28L791.903 116.156L791.646 116.157L307.19 117.011ZM682.287 215.723L682.051 215.582L551.153 137.773H513.559V252.03H552.288H552.541L552.764 252.15L682.816 322.555H714.411V215.723H682.562H682.287ZM714.411 214.723H715.411V215.723V322.555V323.555H714.411H682.562L552.288 253.03H513.559H512.559V252.03V137.773V136.773H513.559H551.428L682.562 214.723H714.411ZM819.954 414.952H818.954V415.952V781.247L685.98 837.07V415.952V414.949L684.977 414.952L83.0296 416.661L7.78814 343.195L1277.76 341.489L1348.29 414.952H819.954ZM685.98 838.155L819.954 781.912V416.952V415.952H820.954H1349.25H1350.64L1349.68 414.952L1278.19 340.489L6.76538 342.197L5.33594 342.199L6.3587 343.197L82.6235 417.662L683.98 415.955L684.98 415.952V416.952V837.49V838.575L685.98 838.155ZM689.177 1029.48V1028.48L688.176 1028.48L203.714 1029.33L106.005 921.287H688.177H689.177V920.287V867.68L817.851 815.09V920.287V921.287H818.851H1339.44L1446.65 1029.33L818.853 1028.48L817.851 1028.48V1029.48V1471.2L689.177 1536.19V1029.48ZM104.656 921.287L203.271 1030.33L687.177 1029.48L688.177 1029.48V1030.48V1536.69V1537.81L689.177 1537.31L818.851 1471.82V1030.48V1029.5V1029.48H819.851L1447.64 1030.33L1449.05 1030.33L1448.06 1029.33L1339.86 920.287H819.851H818.851V919.287V814.682V813.601L817.851 814.01L688.177 867.009V919.287V920.287H687.177H105.1H103.752L104.656 921.287ZM651.781 431.96V534.92L299.646 731.573L190.456 680.029L651.781 431.96ZM652.781 535.507L299.684 732.697L189.361 680.618L188.236 680.087L189.332 679.498L651.781 430.825L652.781 430.287V431.423V535.507ZM651.781 1162.48V1045.75L221.813 1299.75L300.639 1362.99L651.781 1162.48ZM300.544 1364.2L652.781 1163.06V1045.16V1044L651.781 1044.59L220.979 1299.08L220.059 1299.62L220.893 1300.29L300.544 1364.2ZM1294.22 1298.85L1202.66 1362.16L857.35 1161.51L851.872 1046.73L1294.22 1298.85ZM1202.71 1363.34L856.377 1162.1L850.843 1046.14L850.787 1044.96L851.816 1045.55L1295.13 1298.22L1296.09 1298.77L1295.18 1299.4L1202.71 1363.34ZM1348.06 431.142H1346.57H1201.72L1124.79 501.297L1123.69 502.297H1125.18H1270.16L1346.96 432.142L1348.06 431.142ZM1345.48 432.142H1202.11L1126.27 501.297H1269.77L1345.48 432.142ZM652.782 810.728V811.891L651.782 811.296L523.74 735.159L519.496 645.784L519.44 644.608L520.468 645.181L652.782 718.904V810.728ZM651.782 719.492V810.133L524.714 734.575L520.524 646.357L651.782 719.492ZM798.558 217.831H747.896H746.896V218.831V321.7V322.7H747.896H784.797L948.027 250.633V199.538V182.244V181.244H947.027H832.428H831.428V182.244V199.538L798.558 217.831ZM832.428 182.244V199.538V200.126L831.914 200.412L799.044 218.705L798.818 218.831H798.558H747.896V321.7H784.586L947.027 249.982V199.538V182.244H832.428Z" fill="#FFA8A8" fill-opacity="0.19"/>
<defs>
<filter id="filter0_d" x="-38.7715" y="0" width="1518.34" height="1572.05" filterUnits="userSpaceOnUse" color-interpolation-filters="sRGB">
<feFlood flood-opacity="0" result="BackgroundImageFix"/>
<feColorMatrix in="SourceAlpha" type="matrix" values="0 0 0 0 0 0 0 0 0 0 0 0 0 0 0 0 0 0 127 0"/>
<feOffset/>
<feGaussianBlur stdDeviation="15"/>
<feColorMatrix type="matrix" values="0 0 0 0 1 0 0 0 0 0.658824 0 0 0 0 0.658824 0 0 0 0.14 0"/>
<feBlend mode="normal" in2="BackgroundImageFix" result="effect1_dropShadow"/>
<feBlend mode="normal" in="SourceGraphic" in2="effect1_dropShadow" result="shape"/>
</filter>
</defs>
</svg>
